X:1
T:Title
%%score 1 2 3 4
L:1/8
M:6/4
K:G
V:1 treble nm="Church Organ, Soprano"
V:2 treble nm="French Horn, Alto"
V:3 bass nm="Trombone, Tenor"
V:4 bass nm="Tuba, Bass"
V:1
 D2 E4 D2 D2 G2 | B2 d4- d2 d4 | d2 d4 d2 d4 | d2 d4- d2 .d4 | D2 ^D4 =D2 D2 F2 | A2 c4- c2 c4 | %6
w: By~Arthur~H.~Brown * * * *||||||
 e2 d4 G2 G2 B2 | A2 A4- A2 .A4 | c2 B2 A2 G2 F4 | E2 ^D4- D2 D4 | ^D2 E4 ^G2 ^c2 ^d2 | %11
w: |||||
 e2 ^d4- d2 .d4 |[M:2/2] B2 A4 G2- | G2 F4 E2- | E2 c6- | c2 A6- | A2 B6- | B8 |] %18
w: |||||||
V:2
 D2 E4 D2 D2 G2 | B,2 D4- D2 D4 | G2 F4 G2 A2 G2 | F2 G4- G2 .G4 | D2 ^D4 =D2 D2 F2 | %5
w: Some~ right ly~ ce *|le brate~ * *|Thy~ ho ly~ vir *|gin~ fame:~ * *|Some~ praise~ re nowned~ *|
 A,2 C4- C2 C4 | EF G2 D2 ED ^C4 | ^C2 D4- D2 .D4 | F2 F4 E2 C4 | A,2 B,4- B,2 B,2 C2 | %10
w: and~ great~ * *|Thine~ * A * po * sto|lic~ name;~ * *|And~ some~ would~ thee~|in state~ * * *|
 B,2 B,4[K:treble] E2 F4 | F2 F4- F2 .F4 |[M:2/2] B2 A4 G2- | G2 F4 E2- | E2 E4 F2 | G2 G4 F2- | %16
w: A mong~ the~ Pro|phet~ Choir:~ * *|Christ's~ Mar tyr~|* doth~ our~|* lays~ *|* in *|
 F2 G6- | G8 |] %18
w: * spire.~||
V:3
 D,2 E,4 D,2 D,2 G,2 | B,2[K:treble] D4- D2 D4 | B,2 A,4[K:bass] B,2 C2 B,2 | A,2 B,4- B,2 .B,4 | %4
 D,2 ^D,4 =D,2 D,2 F,2 | A,2[K:treble] C4- C2 C4 | C2 D4[K:bass] B,2 A,2 G,2 | E,2 F,4- F,2 .F,4 | %8
 A,2 B,4 B,2 A,4 | E,2 F,4 ^G,2 A,4 | B,A, ^G,4 ^C2 C4 | _B,2 =B,4- B,2 .B,4 | %12
[M:2/2] B,2 A,4 G,2- | G,2 F,4 E,2- | E,2 A,4[K:treble] E2- | E2 D6- | D2 D6- | D8 |] %18
V:4
 D,2 E,4 D,2 D,2 G,2 | B,2 D4- D2 D4 | D,2 D,4 D,2 D,4 | D,2 G,4- G,2 .G,4 | %4
 D,2 ^D,4 =D,2 D,2 F,2 | A,2[K:treble] C4- C2 C4 | A,2 B,4[K:bass] E,2 A,,4 | A,,2 D,4- D,2 .D,4 | %8
 D,2 ^D,4 E,2 A,,4 | C,2 B,,4- B,,2 B,,4 | ^G,F, E,4 ^C,2 _B,,4 | F,,2 B,,4- B,,2 .B,,4 | %12
[M:2/2] B,2 A,4 G,2- | G,2 F,4 E,2- | E,2 A,,6- | A,,2 D,6- | D,2 G,,6- | G,,8 |] %18

